X:3
T:Courante in G Major
C:Bach, J.S.
M:3/4
L:1/8
Q:1/4=92
K:G
|:D|G2 AB cd|e2 dB G2|A2 Bc de|f2 ed c2|
d2 ef ga|b2 ag f2|gfed cBAG|G4 D:|
|:d|g2 fg ag|f2 ef de|c2 Bc dc|B2 AB GA|
F2 GA Bc|d2 ef ga|bagf edcB|G4 d:|

